X:1150
M:C
L:1/8
Q:1/2=60
K:D
d4     F>E`F>G|A2 A>A Af`ed|      c>d````````cB   A>BAG |F>E D>D D2 A2|
a4     c>B`cd |e2 e>e e2 a2|      a^g````````gf   fe`ed |c2  c>c c2 A2|
d2 d>f f2  f>a|ab a4     g2|{g}(3(fef) {a}(3(gfe) d2 c2 |d2  A2  B2 c2|d2 d>d d>d d>d|d6 z2|]

